X:1
T:Vanwa Instr:Lute
C:Achazia Songweaver
c:2010
N:
Q:1/4=190
V:1
M:4/4
L:1/8
K:C
z8 |z8 |z8 |z8 |B,4 B,4- |B,4 A,4 |B,2 D6 |^F6 E2- |
E2 A2 ^F4 |E2 D6 |B,4 B,4- |B,4 A,4 |B,2 D3 z3 |F8 |E2 D2 E4- |
E4 z4 |B,4 B,4- |B,4 A,4 |B,2 D6 |^F6 E2- |E2 A2 ^F4 |E2 D6 |
B,4 B,4- |B,4 A,4 |B,2 D6 |F8 |E2 D2 E4- |E4 z2 EF |E6 z2 |
D2 C2 D4 |G8 |E4 D4- |D2 C2 D4- |D4 z2 EF |E8 |D2 C2 D4 |
G8 |E4 D4- |D2 C2 D4- |D8 |D8 |C2 B,2 C4 |A,6 A,2 |
B,4 C4- |C2 B,2 A,4 |z6- z/ B,/C |D8 |C2 B,2 C4 |A,4 A,4 |
B,4 C4 |B,4 A,4- |A,4 z4 |z8 |z4 B,4 |B,8 |A,4 B,2 D2- |
D4 ^F4- |^F2 E4 A2 |^F4 E2 D2- |D4 B,4 |B,8 |A,4 B,2 D2- |D4 F4- |
F4 E2 D2 |E8 |z4 B,4 |B,8 |A,4 B,2 D2- |D4 ^F4- |^F2 E4 A2 |
^F4 E2 D2- |D4 B,4 |B,8 |A,4 B,2 D2- |D4 F4- |F4 E2 D2 |E8 |
z2 EF E4 |z4 D2 C2 |D4 G4- |G4 E4 |[z6D8] C2 |D8 |
z2 EF E4- |E4 D2 C2 |D4 G4- |G4 E4 |D6 C2 |D8- |D4 D4- |
D4 C2 B,2 |C4 A,4 |z2 A,2 B,4 |C6 B,2 |A,6 z2 |z2- z/ B,/C D4- |
D4 C2 B,2 |C4 A,4 |A,4 B,4 |C4 B,4 |A,8 |]
